material/.icons/material/tooltip-text-outline.svg

<svg xmlns="http://www.w3.org/2000/svg" viewBox="0 0 24 24"><path d="M4 2h16a2 2 0 012 2v12a2 2 0 01-2 2h-4l-4 4-4-4H4a2 2 0 01-2-2V4a2 2 0 012-2m0 2v12h4.83L12 19.17 15.17 16H20V4H4m2 3h12v2H6V7m0 4h10v2H6v-2z"/></svg>

<?xml version="1.0" encoding="UTF-8"?><!DOCTYPE svg PUBLIC "-//W3C//DTD SVG 1.1//EN" "http://www.w3.org/Graphics/SVG/1.1/DTD/svg11.dtd"><svg xmlns="http://www.w3.org/2000/svg" xmlns:xlink="http://www.w3.org/1999/xlink" version="1.1" id="mdi-tooltip-text-outline" width="24" height="24" viewBox="0 0 24 24"><path d="M4,2H20A2,2 0 0,1 22,4V16A2,2 0 0,1 20,18H16L12,22L8,18H4A2,2 0 0,1 2,16V4A2,2 0 0,1 4,2M4,4V16H8.83L12,19.17L15.17,16H20V4H4M6,7H18V9H6V7M6,11H16V13H6V11Z" /></svg>
